icons4/tacticalrmm.svg

<svg xmlns="http://www.w3.org/2000/svg" xmlns:xlink="http://www.w3.org/1999/xlink" width="1100" height="1100" preserveAspectRatio="none"><defs><path id="a" fill="none" stroke="#000" stroke-linecap="round" stroke-linejoin="round" stroke-width="9" d="M907 857.65q111.6-111.45 137.6-258.2 7.9-44.6 7.9-92.45t-7.9-92.4q-26-146.75-137.6-258.2-140.6-140-337.15-145.1v101.15q150.85 7.1 259.8 115.8 116.55 116.2 116.55 280.6 0 164.2-116.55 280.6-27.35 27.3-57.55 50.1V617.9l-77.95-77.5-45.9 45.8v409q65.5-11.6 123.85-40.1 22.1-10.8 43.2-24 48.45-30.35 91.7-73.45m-708.95 0Q52.5 712.35 52.5 507q0-205.3 145.55-350.6 140.6-140 337.15-145.1v101.15q-150.85 7.1-259.8 115.8-116.55 116.2-116.55 280.6 0 164.2 116.55 280.6 27.35 27.3 57.55 50.1V617.9l77.95-77.5 45.9 45.8v409q-65.5-11.6-123.85-40.1-22.1-10.8-43.2-24-48.5-30.35-91.7-73.45"/></defs><circle cx="550" cy="550" r="510.561" style="fill:#fff;stroke-width:7.57133"/><use xlink:href="#a" width="100%" height="100%" style="display:inline" transform="translate(43.893 87.938)scale(.91719)"/><path fill="#424242" d="M572.977 45.7v101.15q150.85 7.1 259.8 115.8 116.55 116.2 116.55 280.6 0 164.2-116.55 280.6-27.35 27.3-57.55 50.1V652.3l-77.95-77.5-45.9 45.8v409q65.5-11.6 123.85-40.1 22.1-10.8 43.2-24 48.45-30.35 91.7-73.45 111.6-111.45 137.6-258.2 7.9-44.6 7.9-92.45t-7.9-92.4q-26-146.75-137.6-258.2-140.6-140-337.15-145.1m-34.65 101.15V45.7q-196.55 5.1-337.15 145.1-145.55 145.3-145.55 350.6 0 205.35 145.55 350.65 43.2 43.1 91.7 73.45 21.1 13.2 43.2 24 58.35 28.5 123.85 40.1v-409l-45.9-45.8-77.95 77.5v221.65q-30.2-22.8-57.55-50.1-116.55-116.4-116.55-280.6 0-164.4 116.55-280.6 108.95-108.7 259.8-115.8" style="display:inline" transform="translate(42.004 58.288)scale(.91427)"/><g style="display:inline"><path fill="#1976d2" d="M617.482 564.994q-80.116 14.216-138.358 0v437.499q54.848 17.564 138.358 0zm-.413-13.62v-64.57h172.432v-125.61H310.5v125.61h168.809v64.57q58.058 13.62 137.761 0" style="display:inline;stroke-width:.917189"/></g></svg>

<?xml version="1.0" encoding="UTF-8" standalone="no"?>
<svg
   version="1.1"
   preserveAspectRatio="none"
   x="0px"
   y="0px"
   width="1100px"
   height="1100px"
   viewBox="0 0 1100 1100"
   id="svg111"
   sodipodi:docname="Layered Master.svg"
   inkscape:version="1.1.2 (b8e25be833, 2022-02-05)"
   inkscape:export-filename="H:\.shortcut-targets-by-id\1-HgESa3tjN_mPmXr739b9yJZtaW-c8q1\Tactical TRMM Admin\Tactical RMM\Logos\silverswordlogos\green.png"
   inkscape:export-xdpi="22.341818"
   inkscape:export-ydpi="22.341818"
   xmlns:inkscape="http://www.inkscape.org/namespaces/inkscape"
   xmlns:sodipodi="http://sodipodi.sourceforge.net/DTD/sodipodi-0.dtd"
   xmlns:xlink="http://www.w3.org/1999/xlink"
   xmlns="http://www.w3.org/2000/svg"
   xmlns:svg="http://www.w3.org/2000/svg">
  <sodipodi:namedview
     id="namedview113"
     pagecolor="#ffffff"
     bordercolor="#666666"
     borderopacity="1.0"
     inkscape:pageshadow="2"
     inkscape:pageopacity="0.0"
     inkscape:pagecheckerboard="true"
     showgrid="false"
     showguides="false"
     objecttolerance="9.8"
     inkscape:zoom="0.34863637"
     inkscape:cx="210.82138"
     inkscape:cy="425.94524"
     inkscape:window-width="1920"
     inkscape:window-height="976"
     inkscape:window-x="-8"
     inkscape:window-y="-8"
     inkscape:window-maximized="1"
     inkscape:current-layer="layer3" />
  <defs
     id="defs94">
    <linearGradient
       inkscape:collect="always"
       id="linearGradient2917">
      <stop
         style="stop-color:#ffffff;stop-opacity:1"
         offset="0"
         id="stop2915" />
      <stop
         style="stop-color:#00ff00;stop-opacity:1"
         offset="1"
         id="stop2913" />
    </linearGradient>
    <g
       id="Layer2_0_FILL">
      <path
         fill="#424242"
         stroke="none"
         d=" M 569.85 11.3 L 569.85 112.45 Q 720.7 119.55 829.65 228.25 946.2 344.45 946.2 508.85 946.2 673.05 829.65 789.45 802.3 816.75 772.1 839.55 L 772.1 617.9 694.15 540.4 648.25 586.2 648.25 995.2 Q 713.75 983.6 772.1 955.1 794.2 944.3 815.3 931.1 863.75 900.75 907 857.65 1018.6 746.2 1044.6 599.45 1052.5 554.85 1052.5 507 1052.5 459.15 1044.6 414.6 1018.6 267.85 907 156.4 766.4 16.4 569.85 11.3 M 535.2 112.45 L 535.2 11.3 Q 338.65 16.4 198.05 156.4 52.5 301.7 52.5 507 52.5 712.35 198.05 857.65 241.25 900.75 289.75 931.1 310.85 944.3 332.95 955.1 391.3 983.6 456.8 995.2 L 456.8 586.2 410.9 540.4 332.95 617.9 332.95 839.55 Q 302.75 816.75 275.4 789.45 158.85 673.05 158.85 508.85 158.85 344.45 275.4 228.25 384.35 119.55 535.2 112.45 Z"
         id="path62" />
      <path
         fill="#1976D2"
         stroke="none"
         d=" M 627.85 524.7 Q 540.5 540.2 477 524.7 L 477 1001.7 Q 536.8 1020.85 627.85 1001.7 L 627.85 524.7 M 627.4 509.85 L 627.4 439.45 815.4 439.45 815.4 302.5 293.15 302.5 293.15 439.45 477.2 439.45 477.2 509.85 Q 540.5 524.7 627.4 509.85 Z"
         id="path64" />
    </g>
    <path
       id="Layer2_0_1_STROKES"
       stroke="#000000"
       stroke-width="9"
       stroke-linejoin="round"
       stroke-linecap="round"
       fill="none"
       d=" M 907 857.65 Q 1018.6 746.2 1044.6 599.45 1052.5 554.85 1052.5 507 1052.5 459.15 1044.6 414.6 1018.6 267.85 907 156.4 766.4 16.4 569.85 11.3 L 569.85 112.45 Q 720.7 119.55 829.65 228.25 946.2 344.45 946.2 508.85 946.2 673.05 829.65 789.45 802.3 816.75 772.1 839.55 L 772.1 617.9 694.15 540.4 648.25 586.2 648.25 995.2 Q 713.75 983.6 772.1 955.1 794.2 944.3 815.3 931.1 863.75 900.75 907 857.65 Z M 198.05 857.65 Q 52.5 712.35 52.5 507 52.5 301.7 198.05 156.4 338.65 16.4 535.2 11.3 L 535.2 112.45 Q 384.35 119.55 275.4 228.25 158.85 344.45 158.85 508.85 158.85 673.05 275.4 789.45 302.75 816.75 332.95 839.55 L 332.95 617.9 410.9 540.4 456.8 586.2 456.8 995.2 Q 391.3 983.6 332.95 955.1 310.85 944.3 289.75 931.1 241.25 900.75 198.05 857.65 Z" />
    <font
       horiz-adv-x="2048"
       id="font92">
      <!--  Font Name: Cano
Vendor ID: HL
Typeface © (Nugroho GraphicDesign). 2019. All Rights Reserved
URL for more Information: http://www.adobe.com/go/font_vendor_id?ID=HL&Name=Cano&PSName=Cano&applanguage=en_US-->
      <font-face
         font-family="Cano_Regular"
         units-per-em="2048"
         ascent="1716"
         descent="418"
         id="font-face68" />
      <hkern
         u1="T"
         u2="a"
         k="420"
         id="hkern70" />
      <hkern
         u1="c"
         u2="t"
         k="80"
         id="hkern72" />
      <glyph
         unicode="T"
         horiz-adv-x="1446"
         d=" M 547 0 Q 631 0 690 59 719 88 734 124 749 160 749 202 L 749 1237 1094 1237 Q 1135 1237 1171 1252 1207 1267 1236 1296 1266 1325 1281 1361 1296 1397 1296 1438 L 202 1438 Q 160 1438 124 1423 88 1408 59 1379 30 1350 15 1314 0 1278 0 1237 L 547 1237 547 0 Z"
         id="glyph74" />
      <glyph
         unicode="a"
         horiz-adv-x="1122"
         d=" M 972 0 L 972 486 Q 972 587 937 673 901 759 830 830 816 844 801 856 787 869 771 880 L 768 882 Q 746 898 721 911 697 925 671 936 659 941 646 946 633 950 619 954 608 958 594 961 580 964 563 966 550 968 537 970 524 971 511 972 L 486 972 Q 385 972 299 937 213 901 142 830 71 759 35 673 0 587 0 486 0 327 92 201 243 0 486 0 L 771 0 Q 771 22 767 42 762 61 754 80 723 141 677 171 631 201 569 201 L 486 201 Q 427 201 376 222 326 243 285 284 244 326 223 376 202 427 202 486 202 545 223 596 244 646 285 687 367 771 486 771 605 771 687 687 771 605 771 486 L 771 201 Q 771 151 793 109 855 0 972 0 Z"
         id="glyph76" />
      <glyph
         unicode="c"
         horiz-adv-x="1099"
         d=" M 486 0 Q 580 0 665 35 751 71 830 142 873 185 902 234 932 283 949 338 926 351 901 357 876 364 850 364 843 364 830 363 817 361 798 359 759 354 708 305 L 687 285 Q 600 201 486 201 376 201 285 285 202 376 202 486 202 596 285 687 376 771 486 771 600 770 687 687 L 708 667 Q 739 638 775 623 811 608 852 608 903 608 949 634 932 689 902 738 873 787 830 830 751 901 665 937 580 972 486 972 389 972 303 937 217 901 142 830 71 751 35 666 0 580 0 486 0 392 35 306 71 221 142 142 217 71 303 35 389 0 486 0 Z"
         id="glyph78" />
      <glyph
         unicode="t"
         horiz-adv-x="1084"
         d=" M 934 0 Q 934 32 925 60 862 215 706 215 L 693 215 Q 634 215 583 236 533 257 491 298 408 380 408 499 L 408 847 648 847 Q 707 847 758 862 809 877 850 906 934 965 934 1049 L 408 1049 408 1258 Q 408 1299 393 1335 378 1371 349 1400 290 1460 206 1460 L 206 1041 Q 71 1009 19 918 0 885 0 847 L 206 847 206 486 Q 206 367 255 270 304 173 401 97 528 0 693 0 L 934 0 Z"
         id="glyph80" />
      <glyph
         unicode="i"
         horiz-adv-x="352"
         d=" M 0 0 Q 84 0 143 59 172 88 187 124 202 160 202 202 L 202 972 Q 119 972 59 913 30 884 15 848 0 812 0 771 L 0 0 Z M 0 1084 Q 84 1084 143 1143 172 1172 187 1208 202 1244 202 1285 L 202 1353 Q 119 1353 59 1294 30 1265 15 1229 0 1193 0 1152 L 0 1084 Z"
         id="glyph82" />
      <glyph
         unicode="l"
         horiz-adv-x="351"
         d=" M 201 0 L 201 1352 Q 201 1394 186 1430 171 1466 142 1495 113 1524 77 1539 41 1554 0 1554 L 0 201 Q 0 160 15 124 30 88 59 59 88 30 124 15 160 0 201 0 Z"
         id="glyph84" />
      <glyph
         unicode=" "
         horiz-adv-x="508"
         id="glyph86" />
      <glyph
         unicode="R"
         horiz-adv-x="1308"
         d=" M 1059 0 Q 1108 0 1158 26 L 832 605 Q 891 619 942 648 992 676 1034 717 1096 779 1127 854 1158 928 1158 1016 1158 1190 1034 1314 910 1438 736 1438 L 0 1438 0 0 Q 41 0 77 15 113 30 142 59 172 88 187 124 202 160 202 201 L 202 1236 736 1236 Q 782 1236 820 1220 859 1203 891 1171 923 1139 940 1100 956 1062 956 1016 956 970 940 931 923 891 891 859 859 827 820 811 782 795 736 795 L 544 795 Q 502 795 466 780 430 765 401 736 372 707 357 671 342 635 342 594 L 608 594 883 103 Q 905 66 929 44 953 21 979 14 1005 7 1025 4 1045 0 1059 0 Z"
         id="glyph88" />
      <glyph
         unicode="M"
         horiz-adv-x="1750"
         d=" M 1600 0 L 1600 1438 Q 1558 1438 1522 1423 1486 1408 1457 1379 1432 1353 1417 1320 L 1415 1321 800 321 184 1321 183 1320 Q 168 1353 142 1379 113 1408 77 1423 41 1438 0 1438 L 0 0 Q 41 0 77 15 113 30 142 59 171 88 186 124 201 160 201 201 L 201 908 637 201 Q 648 184 661 169 674 154 690 143 715 126 742 116 770 107 800 105 830 107 857 116 884 126 909 143 925 154 938 169 952 184 963 201 L 1398 908 1398 201 Q 1398 160 1413 124 1428 88 1457 59 1516 0 1600 0 Z M 1159 1423 L 1159 1426 1157 1426 1159 1423 Z"
         id="glyph90" />
    </font>
    <radialGradient
       inkscape:collect="always"
       xlink:href="#linearGradient2917"
       id="radialGradient2942"
       gradientUnits="userSpaceOnUse"
       gradientTransform="matrix(1.2517955,0,0,1.25197,-138.76878,-139.67605)"
       cx="551.11694"
       cy="554.33594"
       fx="551.11694"
       fy="554.33594"
       r="364.47583" />
  </defs>
  <g
     inkscape:groupmode="layer"
     id="layer5"
     inkscape:label="Background white circle">
    <circle
       style="fill:#ffffff;stroke-width:7.57133"
       id="path993"
       cx="550"
       cy="550"
       r="510.56061" />
  </g>
  <g
     inkscape:groupmode="layer"
     id="layer3"
     inkscape:label="Inner Fill"
     style="display:none">
    <ellipse
       style="fill:url(#radialGradient2942);fill-opacity:1;fill-rule:nonzero;stroke:none;stroke-width:12.7258;stroke-miterlimit:4;stroke-dasharray:none"
       id="path1232"
       cx="551.11694"
       cy="554.33594"
       rx="456.24921"
       ry="456.31284"
       inkscape:export-filename="H:\.shortcut-targets-by-id\1-HgESa3tjN_mPmXr739b9yJZtaW-c8q1\Tactical TRMM Admin\Tactical RMM\Logos\silverswordlogos\yellow.png"
       inkscape:export-xdpi="26.928894"
       inkscape:export-ydpi="26.928894" />
  </g>
  <g
     inkscape:groupmode="layer"
     id="layer4"
     inkscape:label="Outer Circle outline"
     style="display:inline">
    <use
       xlink:href="#Layer2_0_1_STROKES"
       id="use98"
       x="0"
       y="0"
       width="100%"
       height="100%"
       transform="matrix(0.91718935,0,0,0.91718935,43.892922,87.93768)" />
  </g>
  <g
     inkscape:groupmode="layer"
     id="layer1"
     inkscape:label="Outer Circle"
     style="display:inline">
    <g
       id="use96"
       transform="matrix(0.9142741,0,0,0.9142741,42.004354,58.287801)">
      <path
         fill="#424242"
         stroke="none"
         d="M 572.97729,45.700202 V 146.8502 q 150.85,7.1 259.8,115.8 116.55,116.2 116.55,280.6 0,164.2 -116.55,280.6 -27.35,27.3 -57.55,50.1 v -221.65 l -77.95,-77.5 -45.9,45.8 v 409 q 65.5,-11.6 123.85,-40.1 22.1,-10.8 43.2,-24 48.45,-30.35 91.7,-73.45 111.60001,-111.45 137.60001,-258.2 7.9,-44.6 7.9,-92.45 0,-47.85 -7.9,-92.4 -26,-146.75 -137.60001,-258.2 -140.6,-139.999998 -337.15,-145.099998 m -34.65,101.149998 V 45.700202 q -196.55,5.1 -337.15,145.099998 -145.549999,145.3 -145.549999,350.6 0,205.35 145.549999,350.65 43.2,43.1 91.7,73.45 21.1,13.2 43.2,24 58.35,28.5 123.85,40.1 v -409 l -45.9,-45.8 -77.95,77.5 v 221.65 q -30.2,-22.8 -57.55,-50.1 -116.55,-116.4 -116.55,-280.6 0,-164.4 116.55,-280.6 108.95,-108.7 259.8,-115.8 z"
         id="path785" />
    </g>
  </g>
  <g
     inkscape:groupmode="layer"
     id="layer2"
     inkscape:label="T"
     style="display:inline">
    <path
       fill="#1976d2"
       stroke="none"
       d="m 617.48221,564.99359 q -80.11649,14.21644 -138.35802,0 v 437.49931 q 54.84793,17.5642 138.35802,0 V 564.99359 m -0.41274,-13.62026 V 486.8032 h 172.4316 V 361.19412 H 310.49893 V 486.8032 h 168.8087 v 64.57013 q 58.05809,13.62026 137.76184,0 z"
       id="path787"
       style="display:inline;stroke-width:0.917189" />
  </g>
</svg>
